src/images/9.svg

<svg width="30" height="30" viewBox="0 0 30 30" fill="none" xmlns="http://www.w3.org/2000/svg">
<path d="M0 23.3333V26.6667H10V23.3333H0ZM0 3.33333V6.66667H16.6667V3.33333H0ZM16.6667 30V26.6667H30V23.3333H16.6667V20H13.3333V30H16.6667ZM6.66667 10V13.3333H0V16.6667H6.66667V20H10V10H6.66667ZM30 16.6667V13.3333H13.3333V16.6667H30ZM20 10H23.3333V6.66667H30V3.33333H23.3333V0H20V10Z" fill="white"/>
</svg>

<svg width="30" height="30" fill="none" xmlns="http://www.w3.org/2000/svg"><path d="M0 23.333v3.334h10v-3.334H0zm0-20v3.334h16.667V3.333H0zM16.667 30v-3.333H30v-3.334H16.667V20h-3.334v10h3.334zm-10-20v3.333H0v3.334h6.667V20H10V10H6.667zM30 16.667v-3.334H13.333v3.334H30zM20 10h3.333V6.667H30V3.333h-6.667V0H20v10z" fill="#fff"/></svg>
